X:160
T:Connaught's Man's Rambles
C:Joe Buchanan's Scottish Tome - Page 262.1
I:262 1
Z:Carl Allison
R:Jig
L:1/8
M:6/8
K:D
"A7"A | "D"FAA dAA | "G"BAB dAG | "D"FAA "A7"Afe | "G"dBB "A7"BAG |
"D"FAA dAA | "G"BAB def | "A7"gfe dfe | "Bm"dB B2 :|
g | "D"faa "G"gbb | "D"afd dcd | "D"faa "G"gbb | "D"afd "A7"e2 g |
"D"faa "G"gbb | "D"afd def | "G"gfg "F#m"efe | "Bm"dBB B2 :|
